Newaita-dark/apps/scalable/gemini.svg

<?xml version="1.0" encoding="UTF-8"?>
<svg xmlns="http://www.w3.org/2000/svg" xmlns:xlink="http://www.w3.org/1999/xlink" width="512pt" height="512pt" viewBox="0 0 512 512" version="1.1">
<defs>
<linearGradient id="linear0" gradientUnits="userSpaceOnUse" x1="254" y1="233.5" x2="254" y2="254.666672" gradientTransform="matrix(1.000095,0,0,1.000095,243.439871,215.020562)">
<stop offset="0" style="stop-color:rgb(0%,0%,0%);stop-opacity:0.27451;"/>
<stop offset="1" style="stop-color:rgb(0%,0%,0%);stop-opacity:0;"/>
</linearGradient>
<radialGradient id="radial0" gradientUnits="userSpaceOnUse" cx="450.908936" cy="189.579361" fx="450.908936" fy="189.579361" r="21.166656" gradientTransform="matrix(0.00000278673,-1.250119,-2.250215,-0.00000162462,812.921739,1017.525321)">
<stop offset="0" style="stop-color:rgb(0%,0%,0%);stop-opacity:0.313725;"/>
<stop offset="0.222222" style="stop-color:rgb(0%,0%,0%);stop-opacity:0.27451;"/>
<stop offset="1" style="stop-color:rgb(0%,0%,0%);stop-opacity:0;"/>
</radialGradient>
<radialGradient id="radial1" gradientUnits="userSpaceOnUse" cx="450.908936" cy="189.579361" fx="450.908936" fy="189.579361" r="21.166656" gradientTransform="matrix(-0.00000278673,1.250119,2.250215,0.00000162462,-114.354913,-120.439662)">
<stop offset="0" style="stop-color:rgb(0%,0%,0%);stop-opacity:0.313725;"/>
<stop offset="0.222222" style="stop-color:rgb(0%,0%,0%);stop-opacity:0.27451;"/>
<stop offset="1" style="stop-color:rgb(0%,0%,0%);stop-opacity:0;"/>
</radialGradient>
<radialGradient id="radial2" gradientUnits="userSpaceOnUse" cx="450.908936" cy="189.579361" fx="450.908936" fy="189.579361" r="21.166656" gradientTransform="matrix(-0.00000278673,-1.250119,2.250215,-0.00000162462,-114.354913,1017.525321)">
<stop offset="0" style="stop-color:rgb(0%,0%,0%);stop-opacity:0.313725;"/>
<stop offset="0.222222" style="stop-color:rgb(0%,0%,0%);stop-opacity:0.27451;"/>
<stop offset="1" style="stop-color:rgb(0%,0%,0%);stop-opacity:0;"/>
</radialGradient>
<radialGradient id="radial3" gradientUnits="userSpaceOnUse" cx="450.908936" cy="189.579361" fx="450.908936" fy="189.579361" r="21.166656" gradientTransform="matrix(0.00000278673,1.250119,-2.250215,0.00000162462,812.921708,-120.43967)">
<stop offset="0" style="stop-color:rgb(0%,0%,0%);stop-opacity:0.313725;"/>
<stop offset="0.222222" style="stop-color:rgb(0%,0%,0%);stop-opacity:0.27451;"/>
<stop offset="1" style="stop-color:rgb(0%,0%,0%);stop-opacity:0;"/>
</radialGradient>
<linearGradient id="linear1" gradientUnits="userSpaceOnUse" x1="640" y1="1695.118164" x2="640" y2="175.118134" gradientTransform="matrix(0.264609,0,0,0.264609,42.337382,0)">
<stop offset="0" style="stop-color:rgb(100%,43.921569%,26.27451%);stop-opacity:1;"/>
<stop offset="1" style="stop-color:rgb(100%,54.117647%,39.607843%);stop-opacity:1;"/>
</linearGradient>
<linearGradient id="linear2" gradientUnits="userSpaceOnUse" x1="640" y1="1695.118164" x2="640" y2="175.118134" gradientTransform="matrix(0.264609,0,0,0.264609,42.337382,0)">
<stop offset="0" style="stop-color:rgb(14.901961%,77.647059%,85.490196%);stop-opacity:1;"/>
<stop offset="1" style="stop-color:rgb(30.196078%,81.568627%,88.235294%);stop-opacity:1;"/>
</linearGradient>
<linearGradient id="linear3" gradientUnits="userSpaceOnUse" x1="400" y1="1695.118164" x2="400" y2="175.118118" gradientTransform="matrix(0.264609,0,0,0.264609,42.337382,0)">
<stop offset="0" style="stop-color:rgb(25.882353%,25.882353%,25.882353%);stop-opacity:1;"/>
<stop offset="1" style="stop-color:rgb(38.039216%,38.039216%,38.039216%);stop-opacity:1;"/>
</linearGradient>
</defs>
<g id="surface1">
<path style=" stroke:none;fill-rule:nonzero;fill:url(#linear0);" d="M 306.945312 448.542969 L 391.621094 448.542969 L 391.621094 469.710938 L 306.945312 469.710938 Z M 306.945312 448.542969 "/>
<path style=" stroke:none;fill-rule:nonzero;fill:url(#radial0);" d="M 391.621094 448.542969 L 433.957031 448.542969 L 433.957031 427.375 L 391.621094 427.375 Z M 391.621094 448.542969 "/>
<path style=" stroke:none;fill-rule:nonzero;fill:url(#radial1);" d="M 306.945312 448.542969 L 264.609375 448.542969 L 264.609375 469.710938 L 306.945312 469.710938 Z M 306.945312 448.542969 "/>
<path style=" stroke:none;fill-rule:nonzero;fill:url(#radial2);" d="M 306.945312 448.542969 L 264.609375 448.542969 L 264.609375 427.375 L 306.945312 427.375 Z M 306.945312 448.542969 "/>
<path style=" stroke:none;fill-rule:nonzero;fill:url(#radial3);" d="M 391.621094 448.542969 L 433.957031 448.542969 L 433.957031 469.710938 L 391.621094 469.710938 Z M 391.621094 448.542969 "/>
<path style=" stroke:none;fill-rule:nonzero;fill:url(#linear1);" d="M 296.363281 46.335938 C 179.085938 46.335938 84.675781 131.308594 84.675781 236.855469 L 84.675781 258.023438 C 84.675781 363.570312 179.085938 448.542969 296.363281 448.542969 L 402.203125 448.542969 C 407.496094 448.542969 411.464844 447.882812 414.441406 446.722656 C 417.421875 445.566406 419.40625 443.914062 420.726562 441.925781 C 422.050781 439.941406 422.710938 437.628906 423.042969 435.148438 C 423.375 432.667969 423.375 430.019531 423.375 427.375 C 423.375 300.363281 197.109375 323.53125 190.519531 236.855469 C 191.332031 137.640625 423.375 215.6875 423.375 67.507812 C 423.375 56.921875 418.082031 46.335938 402.203125 46.335938 Z M 296.363281 46.335938 "/>
<path style=" stroke:none;fill-rule:nonzero;fill:url(#linear2);" d="M 296.363281 46.335938 C 179.085938 46.335938 84.675781 131.308594 84.675781 236.855469 L 84.675781 237.914062 C 115.78125 237.242188 151.894531 236.855469 190.519531 236.855469 C 191.332031 137.640625 423.375 215.6875 423.375 67.507812 C 423.375 56.921875 418.082031 46.335938 402.203125 46.335938 Z M 296.363281 46.335938 "/>
<path style=" stroke:none;fill-rule:nonzero;fill:url(#linear3);" d="M 296.363281 46.335938 C 179.085938 46.335938 84.675781 131.308594 84.675781 236.855469 L 84.675781 258.023438 C 84.675781 363.570312 179.085938 448.542969 296.363281 448.542969 L 402.203125 448.542969 C 284.929688 448.542969 190.519531 363.570312 190.519531 258.023438 L 190.519531 236.855469 C 190.519531 131.308594 284.929688 46.335938 402.203125 46.335938 Z M 296.363281 46.335938 "/>
<path style=" stroke:none;fill-rule:nonzero;fill:rgb(12.941177%,12.941177%,12.941177%);fill-opacity:1;" d="M 296.363281 44.839844 C 178.363281 44.839844 83.175781 130.414062 83.175781 236.855469 L 83.175781 258.023438 C 83.175781 364.464844 178.363281 450.042969 296.363281 450.042969 L 402.203125 450.042969 C 403.023438 450.03125 403.683594 449.363281 403.683594 448.542969 C 403.683594 447.722656 403.023438 447.054688 402.203125 447.042969 C 285.65625 447.042969 192.019531 362.675781 192.019531 258.023438 L 192.019531 236.855469 C 192.019531 132.203125 285.65625 47.839844 402.203125 47.839844 C 403.023438 47.828125 403.683594 47.160156 403.683594 46.339844 C 403.683594 45.519531 403.023438 44.851562 402.203125 44.839844 Z M 296.363281 47.839844 L 365.625 47.839844 C 265.175781 63.402344 189.019531 141.691406 189.019531 236.855469 L 189.019531 258.023438 C 189.019531 353.191406 265.183594 431.484375 365.636719 447.042969 L 296.363281 447.042969 C 179.8125 447.042969 86.175781 362.675781 86.175781 258.023438 L 86.175781 236.855469 C 86.175781 132.203125 179.8125 47.839844 296.363281 47.839844 Z M 296.363281 47.839844 "/>
<path style=" stroke:none;fill-rule:nonzero;fill:rgb(100%,100%,100%);fill-opacity:0.392157;" d="M 296.410156 46.335938 C 179.136719 46.335938 84.722656 131.308594 84.722656 236.855469 L 84.722656 242.148438 C 84.722656 136.601562 179.136719 51.628906 296.410156 51.628906 L 402.253906 51.628906 C 417.292969 51.628906 422.832031 61.128906 423.375 71.128906 C 423.40625 69.9375 423.421875 68.730469 423.421875 67.507812 C 423.421875 56.921875 418.128906 46.335938 402.253906 46.335938 Z M 190.714844 238.417969 C 190.628906 239.632812 190.578125 240.875 190.566406 242.148438 C 197.121094 328.316406 420.792969 305.921875 423.398438 430.464844 C 423.417969 429.441406 423.421875 428.40625 423.421875 427.375 C 423.421875 301.132812 199.898438 323.253906 190.714844 238.417969 Z M 190.714844 238.417969 "/>
<path style=" stroke:none;fill-rule:nonzero;fill:rgb(0%,0%,0%);fill-opacity:0.235294;" d="M 423.375 65.835938 C 419.605469 209.117188 191.375 133.167969 190.566406 231.5625 C 190.605469 232.089844 190.65625 232.609375 190.714844 233.125 C 197.296875 139.609375 423.421875 213.785156 423.421875 67.507812 C 423.421875 66.949219 423.402344 66.394531 423.375 65.835938 Z M 84.722656 252.734375 L 84.722656 258.023438 C 84.722656 363.570312 179.136719 448.542969 296.410156 448.542969 L 402.253906 448.542969 C 407.546875 448.542969 411.515625 447.882812 414.492188 446.722656 C 417.46875 445.566406 419.453125 443.910156 420.777344 441.925781 C 422.097656 439.941406 422.761719 437.628906 423.089844 435.148438 C 423.421875 432.667969 423.421875 430.019531 423.421875 427.375 C 423.421875 426.632812 423.414062 425.902344 423.398438 425.171875 C 423.367188 426.769531 423.292969 428.34375 423.089844 429.855469 C 422.761719 432.335938 422.097656 434.652344 420.777344 436.636719 C 419.453125 438.621094 417.46875 440.273438 414.492188 441.433594 C 411.515625 442.589844 407.546875 443.25 402.253906 443.25 L 296.410156 443.25 C 179.136719 443.25 84.722656 358.28125 84.722656 252.734375 Z M 84.722656 252.734375 "/>
<path style="fill:none;stroke-width:3;stroke-linecap:round;stroke-linejoin:round;stroke:rgb(12.941177%,12.941177%,12.941177%);stroke-opacity:1;stroke-miterlimit:4;" d="M 793.749926 -168.668487 C 676.487686 -168.668487 582.082639 -83.703944 582.082639 21.832852 L 582.082639 42.9988 C 582.082639 148.535597 676.487686 233.500139 793.749926 233.500139 L 899.583569 233.500139 C 904.876032 233.500139 908.844403 232.840046 911.820682 231.68 C 914.79696 230.523861 916.781146 228.867769 918.105238 226.883583 C 919.425424 224.899398 920.089423 222.587119 920.417517 220.106887 C 920.749517 217.626655 920.749517 214.97847 920.749517 212.334192 C 920.749517 85.334601 694.509403 108.496451 687.916282 21.832852 C 688.728705 -77.372518 920.749517 0.666905 920.749517 -147.498634 C 920.749517 -158.08356 915.457053 -168.668487 899.583569 -168.668487 Z M 793.749926 -168.668487 " transform="matrix(1.000095,0,0,1.000095,-497.415569,215.020531)"/>
</g>
</svg>

<svg xmlns="http://www.w3.org/2000/svg" width="512pt" height="512pt" viewBox="0 0 512 512"><defs><linearGradient id="a" gradientUnits="userSpaceOnUse" x1="254" y1="233.5" x2="254" y2="254.667" gradientTransform="matrix(1.0001 0 0 1.0001 243.44 215.02)"><stop offset="0" stop-opacity=".275"/><stop offset="1" stop-opacity="0"/></linearGradient><radialGradient id="b" gradientUnits="userSpaceOnUse" cx="450.909" cy="189.579" fx="450.909" fy="189.579" r="21.167" gradientTransform="matrix(0 -1.25012 -2.25021 0 812.922 1017.525)"><stop offset="0" stop-opacity=".314"/><stop offset=".222" stop-opacity=".275"/><stop offset="1" stop-opacity="0"/></radialGradient><radialGradient id="c" gradientUnits="userSpaceOnUse" cx="450.909" cy="189.579" fx="450.909" fy="189.579" r="21.167" gradientTransform="matrix(0 1.25012 2.25021 0 -114.355 -120.44)"><stop offset="0" stop-opacity=".314"/><stop offset=".222" stop-opacity=".275"/><stop offset="1" stop-opacity="0"/></radialGradient><radialGradient id="d" gradientUnits="userSpaceOnUse" cx="450.909" cy="189.579" fx="450.909" fy="189.579" r="21.167" gradientTransform="matrix(0 -1.25012 2.25021 0 -114.355 1017.525)"><stop offset="0" stop-opacity=".314"/><stop offset=".222" stop-opacity=".275"/><stop offset="1" stop-opacity="0"/></radialGradient><radialGradient id="e" gradientUnits="userSpaceOnUse" cx="450.909" cy="189.579" fx="450.909" fy="189.579" r="21.167" gradientTransform="matrix(0 1.25012 -2.25021 0 812.922 -120.44)"><stop offset="0" stop-opacity=".314"/><stop offset=".222" stop-opacity=".275"/><stop offset="1" stop-opacity="0"/></radialGradient><linearGradient id="f" gradientUnits="userSpaceOnUse" x1="640" y1="1695.118" x2="640" y2="175.118" gradientTransform="matrix(.2646 0 0 .2646 42.337 0)"><stop offset="0" stop-color="#ff7043"/><stop offset="1" stop-color="#ff8a65"/></linearGradient><linearGradient id="g" gradientUnits="userSpaceOnUse" x1="640" y1="1695.118" x2="640" y2="175.118" gradientTransform="matrix(.2646 0 0 .2646 42.337 0)"><stop offset="0" stop-color="#26c6da"/><stop offset="1" stop-color="#4dd0e1"/></linearGradient><linearGradient id="h" gradientUnits="userSpaceOnUse" x1="400" y1="1695.118" x2="400" y2="175.118" gradientTransform="matrix(.2646 0 0 .2646 42.337 0)"><stop offset="0" stop-color="#424242"/><stop offset="1" stop-color="#616161"/></linearGradient></defs><path d="M306.945 448.543h84.676v21.168h-84.676zm0 0" fill="url(#a)"/><path d="M391.621 448.543h42.336v-21.168h-42.336zm0 0" fill="url(#b)"/><path d="M306.945 448.543H264.61v21.168h42.336zm0 0" fill="url(#c)"/><path d="M306.945 448.543H264.61v-21.168h42.336zm0 0" fill="url(#d)"/><path d="M391.621 448.543h42.336v21.168h-42.336zm0 0" fill="url(#e)"/><path d="M296.363 46.336c-117.277 0-211.687 84.973-211.687 190.52v21.167c0 105.547 94.41 190.52 211.687 190.52h105.84c5.293 0 9.262-.66 12.238-1.82 2.98-1.157 4.965-2.809 6.286-4.797 1.324-1.985 1.984-4.297 2.316-6.778.332-2.48.332-5.128.332-7.773 0-127.012-226.266-103.844-232.855-190.52.812-99.214 232.855-21.167 232.855-169.347 0-10.586-5.293-21.172-21.172-21.172zm0 0" fill="url(#f)"/><path d="M296.363 46.336c-117.277 0-211.687 84.973-211.687 190.52v1.058c31.105-.672 67.219-1.059 105.844-1.059.812-99.214 232.855-21.167 232.855-169.347 0-10.586-5.293-21.172-21.172-21.172zm0 0" fill="url(#g)"/><path d="M296.363 46.336c-117.277 0-211.687 84.973-211.687 190.52v21.167c0 105.547 94.41 190.52 211.687 190.52h105.84c-117.273 0-211.683-84.973-211.683-190.52v-21.168c0-105.546 94.41-190.52 211.683-190.52zm0 0" fill="url(#h)"/><path d="M296.363 44.84c-118 0-213.187 85.574-213.187 192.015v21.168c0 106.442 95.187 192.02 213.187 192.02h105.84a1.501 1.501 0 0 0 0-3c-116.547 0-210.183-84.367-210.183-189.02v-21.168c0-104.652 93.636-189.015 210.183-189.015a1.501 1.501 0 0 0 0-3zm0 3h69.262C265.175 63.402 189.02 141.69 189.02 236.855v21.168c0 95.168 76.164 173.461 176.617 189.02h-69.274c-116.55 0-210.187-84.367-210.187-189.02v-21.168c0-104.652 93.636-189.015 210.187-189.015zm0 0" fill="#212121"/><path d="M296.41 46.336c-117.273 0-211.687 84.973-211.687 190.52v5.292c0-105.546 94.414-190.52 211.687-190.52h105.844c15.039 0 20.578 9.5 21.121 19.5.031-1.19.047-2.398.047-3.62 0-10.586-5.293-21.172-21.168-21.172zM190.715 238.418a60.749 60.749 0 0 0-.149 3.73c6.555 86.168 230.227 63.774 232.832 188.317.02-1.024.024-2.059.024-3.09 0-126.242-223.524-104.121-232.707-188.957zm0 0" fill="#fff" fill-opacity=".392"/><path d="M423.375 65.836c-3.77 143.281-232 67.332-232.809 165.726.04.528.09 1.047.149 1.563 6.582-93.516 232.707-19.34 232.707-165.617 0-.559-.02-1.113-.047-1.672zM84.723 252.734v5.29c0 105.546 94.414 190.519 211.687 190.519h105.844c5.293 0 9.262-.66 12.238-1.82 2.977-1.157 4.961-2.813 6.285-4.797 1.32-1.985 1.985-4.297 2.313-6.778.332-2.48.332-5.128.332-7.773 0-.742-.008-1.473-.024-2.203-.03 1.598-.105 3.172-.308 4.683-.328 2.48-.992 4.797-2.313 6.782-1.324 1.984-3.308 3.636-6.285 4.797-2.976 1.156-6.945 1.816-12.238 1.816H296.41c-117.273 0-211.687-84.969-211.687-190.516zm0 0" fill-opacity=".235"/><path d="M296.41 46.336c-117.274 0-211.688 84.973-211.688 190.52v21.167c0 105.547 94.414 190.52 211.688 190.52h105.843c5.293 0 9.262-.66 12.239-1.82 2.976-1.157 4.96-2.813 6.285-4.797 1.32-1.985 1.984-4.297 2.312-6.778.332-2.48.332-5.129.332-7.773 0-127.012-226.261-103.848-232.855-190.52.813-99.214 232.855-21.168 232.855-169.347 0-10.586-5.293-21.172-21.168-21.172zm0 0" fill="none" stroke-width="3.0002699999999995" stroke-linecap="round" stroke-linejoin="round" stroke="#212121"/></svg>
